X: 33986
T: Reel à Bruce
R: reel
M: 4/4
K: Dmajor
|:"D"A2FA dAfd|A2FA dAfd|"A7"cdef gece|"D"defg afdB|
"D"A2FA dAfd|A2FA dAfd|"A7"cdef gece|"D"dfec d4:|
|:"G"B2GB eBgB|"D"A2FA dAfd|"A7"cdef gece|"D"cefg afdA|
"G"B2GB eBgB|"D"A2FA dAfd|"A7"cdef gece|"D"dfec d4:|

